X: 90
M:2/4
L:1/16
K:A
ue2|AcBc AFFE|Acea .f2(fg)|agfe fecA|BcBA .F2.E2|
|:(ucd)|"0"eaga fece|faga .f2(fg)|agfe fecA|BcBA .F2.E2|


